flaticon/user-interface/left-alignment-4.svg

<svg xmlns="http://www.w3.org/2000/svg" width="32" height="32" viewBox="0 0 24 24">
    <path d="M 0 0.398438 L 0 23.601562 L 24 23.601562 L 24 0.398438 Z M 23.199219 22.800781 L 0.800781 22.800781 L 0.800781 1.199219 L 23.199219 1.199219 Z M 23.199219 22.800781"/>
    <path d="M8 20.398438L8 3.601562 3.199219 3.601562 3.199219 20.398438zM4 9.367188L7.199219 6.164062 7.199219 7.835938 4 11.035156zM4 12.164062L7.199219 8.964844 7.199219 10.632812 4 13.835938zM4 14.964844L7.199219 11.765625 7.199219 13.433594 4 16.632812zM4 17.765625L7.199219 14.566406 7.199219 16.234375 4 19.433594zM4.964844 19.601562L7.199219 17.367188 7.199219 19.601562zM7.199219 5.035156L4 8.234375 4 6.566406 6.164062 4.398438 7.199219 4.398438zM5.035156 4.398438L4 5.433594 4 4.398438zM10.832031 12.152344C10.851562 12.203125 10.878906 12.246094 10.917969 12.28125L14.117188 15.484375C14.195312 15.5625 14.296875 15.601562 14.398438 15.601562 14.503906 15.601562 14.605469 15.5625 14.683594 15.484375 14.839844 15.328125 14.839844 15.074219 14.683594 14.917969L12.164062 12.398438 19.199219 12.398438C19.421875 12.398438 19.601562 12.222656 19.601562 12 19.601562 11.777344 19.421875 11.601562 19.199219 11.601562L12.164062 11.601562 14.683594 9.082031C14.839844 8.925781 14.839844 8.671875 14.683594 8.515625 14.527344 8.359375 14.273438 8.359375 14.117188 8.515625L10.917969 11.71875C10.878906 11.753906 10.851562 11.796875 10.832031 11.847656 10.789062 11.945312 10.789062 12.054688 10.832031 12.152344zM10.832031 12.152344"/>
</svg>

<svg xmlns="http://www.w3.org/2000/svg" width="32" height="32" viewBox="0 0 24 24">
    <path d="M0 .398v23.204h24V.398zm23.2 22.403H.8V1.199h22.4zm0 0"/>
    <path d="M8 20.398V3.602H3.2v16.796zM4 9.368l3.2-3.204v1.672l-3.2 3.2zm0 2.796l3.2-3.2v1.669L4 13.836zm0 2.8l3.2-3.198v1.668L4 16.633zm0 2.802l3.2-3.2v1.668l-3.2 3.2zm.965 1.836l2.234-2.235v2.235zM7.199 5.035L4 8.235V6.565l2.164-2.168H7.2zm-2.164-.637L4 5.434V4.398zm0 0M10.832 12.152c.02.051.047.094.086.13l3.2 3.202a.399.399 0 0 0 .566 0 .4.4 0 0 0 0-.566l-2.52-2.52H19.2a.398.398 0 1 0 0-.796h-7.035l2.52-2.52a.4.4 0 0 0-.567-.566l-3.199 3.203a.326.326 0 0 0-.086.129.376.376 0 0 0 0 .304zm0 0"/>
</svg>
